images/account-icon.svg

<svg xmlns="http://www.w3.org/2000/svg" xmlns:xlink="http://www.w3.org/1999/xlink" width="30" zoomAndPan="magnify" viewBox="0 0 22.5 22.5" height="30" preserveAspectRatio="xMidYMid meet" version="1.0"><defs><clipPath id="c784b6d954"><path d="M 0 0.199219 L 22 0.199219 L 22 22 L 0 22 Z M 0 0.199219 " clip-rule="nonzero"/></clipPath></defs><path fill="#d5ba2b" d="M 10.832031 2.820312 C 8.824219 2.820312 7.195312 4.566406 7.195312 6.714844 C 7.195312 8.867188 8.824219 10.613281 10.832031 10.613281 C 12.84375 10.613281 14.472656 8.867188 14.472656 6.714844 C 14.472656 4.566406 12.84375 2.820312 10.832031 2.820312 " fill-opacity="1" fill-rule="nonzero"/><path fill="#d5ba2b" d="M 17.417969 18.3125 C 17.433594 18.210938 17.441406 18.109375 17.441406 18.003906 L 17.441406 16.550781 C 17.441406 14.117188 15.46875 12.144531 13.035156 12.144531 L 8.632812 12.144531 C 6.199219 12.144531 4.226562 14.117188 4.226562 16.550781 L 4.226562 18.003906 C 4.226562 18.109375 4.234375 18.210938 4.246094 18.3125 C 2.175781 16.484375 0.863281 13.808594 0.863281 10.832031 C 0.863281 5.335938 5.335938 0.863281 10.832031 0.863281 C 16.332031 0.863281 20.804688 5.335938 20.804688 10.832031 C 20.804688 13.808594 19.492188 16.484375 17.417969 18.3125 Z M 10.832031 0 C 4.859375 0 0 4.859375 0 10.832031 C 0 16.808594 4.859375 21.667969 10.832031 21.667969 C 16.808594 21.667969 21.667969 16.808594 21.667969 10.832031 C 21.667969 4.859375 16.808594 0 10.832031 0 " fill-opacity="1" fill-rule="nonzero"/><path fill="#d5ba2b" d="M 10.832031 3.019531 C 8.824219 3.019531 7.195312 4.761719 7.195312 6.914062 C 7.195312 9.066406 8.824219 10.808594 10.832031 10.808594 C 12.84375 10.808594 14.472656 9.066406 14.472656 6.914062 C 14.472656 4.761719 12.84375 3.019531 10.832031 3.019531 " fill-opacity="1" fill-rule="nonzero"/><g clip-path="url(#c784b6d954)"><path fill="#d5ba2b" d="M 17.417969 18.511719 C 17.433594 18.410156 17.441406 18.308594 17.441406 18.203125 L 17.441406 16.75 C 17.441406 14.316406 15.46875 12.34375 13.035156 12.34375 L 8.632812 12.34375 C 6.199219 12.34375 4.226562 14.316406 4.226562 16.75 L 4.226562 18.203125 C 4.226562 18.308594 4.234375 18.410156 4.246094 18.511719 C 2.175781 16.679688 0.863281 14.007812 0.863281 11.03125 C 0.863281 5.535156 5.335938 1.0625 10.832031 1.0625 C 16.332031 1.0625 20.804688 5.535156 20.804688 11.03125 C 20.804688 14.007812 19.492188 16.679688 17.417969 18.511719 Z M 10.832031 0.199219 C 4.859375 0.199219 0 5.058594 0 11.03125 C 0 17.003906 4.859375 21.867188 10.832031 21.867188 C 16.808594 21.867188 21.667969 17.003906 21.667969 11.03125 C 21.667969 5.058594 16.808594 0.199219 10.832031 0.199219 " fill-opacity="1" fill-rule="nonzero"/></g></svg>

<svg xmlns="http://www.w3.org/2000/svg" width="30" height="30" viewBox="0 0 22.5 22.5"><defs><clipPath id="a"><path d="M0 .2h22V22H0Zm0 0"/></clipPath></defs><path fill="#d5ba2b" d="M10.832 2.82c-2.008 0-3.637 1.746-3.637 3.895 0 2.152 1.63 3.898 3.637 3.898 2.012 0 3.64-1.746 3.64-3.898 0-2.149-1.628-3.895-3.64-3.895"/><path fill="#d5ba2b" d="M17.418 18.313q.023-.152.023-.31v-1.452a4.406 4.406 0 0 0-4.406-4.406H8.633a4.406 4.406 0 0 0-4.406 4.406v1.453q0 .157.02.308a9.96 9.96 0 0 1-3.384-7.48c0-5.496 4.473-9.969 9.969-9.969 5.5 0 9.973 4.473 9.973 9.969a9.95 9.95 0 0 1-3.387 7.48M10.832 0C4.859 0 0 4.86 0 10.832c0 5.977 4.86 10.836 10.832 10.836 5.977 0 10.836-4.86 10.836-10.836C21.668 4.859 16.808 0 10.832 0"/><path fill="#d5ba2b" d="M10.832 3.02c-2.008 0-3.637 1.742-3.637 3.894s1.63 3.895 3.637 3.895c2.012 0 3.64-1.743 3.64-3.895s-1.628-3.894-3.64-3.894"/><g clip-path="url(#a)"><path fill="#d5ba2b" d="M17.418 18.512q.023-.151.023-.309V16.75a4.406 4.406 0 0 0-4.406-4.406H8.633a4.406 4.406 0 0 0-4.406 4.406v1.453q0 .157.02.309a9.97 9.97 0 0 1-3.384-7.48c0-5.497 4.473-9.97 9.969-9.97 5.5 0 9.973 4.473 9.973 9.97a9.96 9.96 0 0 1-3.387 7.48M10.832.199C4.859.2 0 5.06 0 11.031s4.86 10.836 10.832 10.836c5.977 0 10.836-4.863 10.836-10.836S16.808.2 10.832.2"/></g></svg>
